dist/styles/ag-theme-alpine/icons/color-picker.svg

<!-- Generated by IcoMoon.io -->
<svg version="1.1" xmlns="http://www.w3.org/2000/svg" width="32" height="32" viewBox="0 0 32 32">
<title>color-picker</title>
<path d="M23.907 17.587l-13.333-13.333-1.88 1.88 3.173 3.173-8.28 8.28 10.16 10.16 10.16-10.16zM7.36 17.587l6.387-6.387 6.387 6.387h-12.773zM25.747 19.587c0 0-2.667 2.893-2.667 4.667 0 1.467 1.2 2.667 2.667 2.667s2.667-1.2 2.667-2.667c0-1.773-2.667-4.667-2.667-4.667z"></path>
</svg>

<?xml version="1.0" encoding="UTF-8" standalone="no"?>
<!DOCTYPE svg PUBLIC "-//W3C//DTD SVG 1.1//EN" "http://www.w3.org/Graphics/SVG/1.1/DTD/svg11.dtd">
<svg width="100%" height="100%" viewBox="0 0 32 32" version="1.1" xmlns="http://www.w3.org/2000/svg" xmlns:xlink="http://www.w3.org/1999/xlink" xml:space="preserve" xmlns:serif="http://www.serif.com/" style="fill-rule:evenodd;clip-rule:evenodd;stroke-linejoin:round;stroke-miterlimit:2;">
    <path id="color-picker" d="M23.907,17.587L10.574,4.254L8.694,6.134L11.867,9.307L3.587,17.587L13.747,27.747L23.907,17.587ZM7.36,17.587L13.747,11.2L20.134,17.587L7.36,17.587ZM25.747,19.587C25.747,19.587 23.08,22.48 23.08,24.254C23.08,25.721 24.28,26.921 25.747,26.921C27.214,26.921 28.414,25.721 28.414,24.254C28.414,22.481 25.747,19.587 25.747,19.587Z" style="fill-rule:nonzero;"/>
</svg>
